X:SSF 14-19b 52
T:Hot Punch
O:Scotland
B:Kerr, Merry Melodies(?), c1880s (as "Orange and Blue")
M:6/8
K:D
P:A
a2g| f2d dcd Bcd A2d f2d faf |1 d3 def g2e efe b2e e2d cBA c2B A3 :|2 d3 f2g afa geg fdf e2d c2c ABc d3 :|
P:B
a2g| f2a aga fga a2g f2d faf |1 d3 e2f g2e ede c2e e2d cBA c2B A3 :|2 d3 f2g afa geg fdf e2d c2c ABc d3 :|

% Into... SSF 14-19b 53 = BFS 14-04 17 Louisberg Square

% SSF 14-19b 54 = BFS 14-04 22 Worcester Hornpipe, into SSF 14-19b 55 = EATMD 13-01 09 Gloucester Hornpipe

